icon-svg/f1-alt.svg

<svg xmlns="http://www.w3.org/2000/svg" fill="#44739e" viewBox="0 0 24 24"><path d="M16.028 19.229H8.26a.822.822 0 0 0-.822.821V22h9.33v-2.032a.739.739 0 0 0-.74-.739M10.35 7.488c-.139.328-.269.637-.432 1.131a11.3 11.3 0 0 0-.506 1.951 5.1 5.1 0 0 0 .193 2.218 12.8 12.8 0 0 1 .283 1.368 8.14 8.14 0 0 1-.141 3.112c-.142.668-.228 1.072.11 1.506a1.7 1.7 0 0 0 .163.149h4.163a1.6 1.6 0 0 0 .166-.15c.337-.433.252-.837.111-1.506a8.09 8.09 0 0 1-.142-3.111 12.6 12.6 0 0 1 .282-1.366 5.11 5.11 0 0 0 .193-2.22 11.33 11.33 0 0 0-.505-1.947c-.165-.5-.295-.807-.433-1.135-.15-.354-.3-.721-.521-1.359a13.1 13.1 0 0 1-.519-1.742 11 11 0 0 1-.164-1.347c-.041-.558-.069-.832-.266-.96l-.071-.055A.9.9 0 0 0 12.105 2a.83.83 0 0 0-.215.024v.01l-.07.045c-.2.128-.226.4-.267.96a10.7 10.7 0 0 1-.163 1.346 13 13 0 0 1-.516 1.731c-.22.651-.374 1.018-.524 1.372m1.011 3.468a.742.742 0 1 1 1.484 0v1.457h-1.484zm5.419 6.534h-.9a1.067 1.067 0 0 0-1.053.974.9.9 0 0 1-.02.1 1.41 1.41 0 0 1-.2.361h1.418a1.047 1.047 0 0 1 1.046 1.045v1.38a1.061 1.061 0 0 0 .779-1.013v-1.774a1.076 1.076 0 0 0-1.07-1.073m-8.52 1.433h.84v-.376a1.059 1.059 0 0 0-1.061-1.057H7.2a1.059 1.059 0 0 0-1.057 1.057v1.806a1.053 1.053 0 0 0 .989 1.047v-1.35a1.128 1.128 0 0 1 1.128-1.127M13 3.832h3.08a.959.959 0 0 0-.956.957v.9h-1.615l.068.2h1.547v.262l-1.231.616c.028.073.055.139.081.205l1.15-.575v.4a.959.959 0 0 0 .956.957h.505a.96.96 0 0 0 .957-.957V4.789a.96.96 0 0 0-.957-.957h.1a.532.532 0 0 0 .476-.575V2.8a.563.563 0 0 0-.5-.608h-3.83a4.6 4.6 0 0 1 .129.991c.008.196.022.417.04.649M7.855 7.753h.5a.96.96 0 0 0 .961-.953v-.348l1.12.56c.027-.066.054-.131.083-.2l-1.2-.6v-.319h1.532l.068-.2h-1.6v-.9a.96.96 0 0 0-.957-.957H11.2c.02-.234.035-.453.046-.645a4.53 4.53 0 0 1 .13-.991H7.594a.512.512 0 0 0-.458.553V3.3a.5.5 0 0 0 .444.536h.275a.96.96 0 0 0-.957.957V6.8a.96.96 0 0 0 .957.953"/></svg>

<?xml version="1.0" encoding="UTF-8"?>
<svg width="24px" fill="#44739e" height="24px" viewBox="0 0 24 24" version="1.1" xmlns="http://www.w3.org/2000/svg" xmlns:xlink="http://www.w3.org/1999/xlink">
            <path d="M 16.028,19.229 H 8.26 A 0.822,0.822 0 0 0 7.438,20.05 V 22 h 9.33 v -2.032 a 0.739,0.739 0 0 0 -0.74,-0.739 z M 10.35,7.488 C 10.211,7.816 10.081,8.125 9.918,8.619 a 11.292,11.292 0 0 0 -0.506,1.951 5.1,5.1 0 0 0 0.193,2.218 12.816,12.816 0 0 1 0.283,1.368 8.139,8.139 0 0 1 -0.141,3.112 c -0.142,0.668 -0.228,1.072 0.11,1.506 a 1.677,1.677 0 0 0 0.163,0.149 h 4.163 a 1.6,1.6 0 0 0 0.166,-0.15 c 0.337,-0.433 0.252,-0.837 0.111,-1.506 A 8.088,8.088 0 0 1 14.318,14.156 12.576,12.576 0 0 1 14.6,12.79 5.113,5.113 0 0 0 14.793,10.57 11.331,11.331 0 0 0 14.288,8.623 C 14.123,8.123 13.993,7.816 13.855,7.488 13.705,7.134 13.555,6.767 13.334,6.129 A 13.073,13.073 0 0 1 12.815,4.387 10.968,10.968 0 0 1 12.651,3.04 C 12.61,2.482 12.582,2.208 12.385,2.08 L 12.314,2.025 A 0.885,0.885 0 0 0 12.105,2 0.826,0.826 0 0 0 11.89,2.024 v 0.01 l -0.07,0.045 c -0.2,0.128 -0.226,0.4 -0.267,0.96 A 10.711,10.711 0 0 1 11.39,4.385 13,13 0 0 1 10.874,6.116 C 10.654,6.767 10.5,7.134 10.35,7.488 Z m 1.011,3.468 a 0.742,0.742 0 1 1 1.484,0 v 1.457 h -1.484 z m 5.419,6.534 h -0.9 a 1.067,1.067 0 0 0 -1.053,0.974 0.852,0.852 0 0 1 -0.02,0.1 1.412,1.412 0 0 1 -0.2,0.361 h 1.418 a 1.047,1.047 0 0 1 1.046,1.045 v 1.38 A 1.061,1.061 0 0 0 17.85,20.337 V 18.563 A 1.076,1.076 0 0 0 16.78,17.49 Z M 8.26,18.923 H 9.1 V 18.547 A 1.059,1.059 0 0 0 8.039,17.49 H 7.2 a 1.059,1.059 0 0 0 -1.057,1.057 v 1.806 A 1.053,1.053 0 0 0 7.132,21.4 V 20.05 A 1.128,1.128 0 0 1 8.26,18.923 Z M 13,3.832 h 3.08 a 0.959,0.959 0 0 0 -0.956,0.957 v 0.9 h -1.615 l 0.068,0.2 h 1.547 v 0.262 l -1.231,0.616 c 0.028,0.073 0.055,0.139 0.081,0.205 l 1.15,-0.575 v 0.4 a 0.959,0.959 0 0 0 0.956,0.957 h 0.505 A 0.96,0.96 0 0 0 17.542,6.797 V 4.789 A 0.96,0.96 0 0 0 16.585,3.832 h 0.1 A 0.532,0.532 0 0 0 17.161,3.257 V 2.8 a 0.563,0.563 0 0 0 -0.5,-0.608 h -3.83 A 4.6,4.6 0 0 1 12.96,3.183 C 12.968,3.379 12.982,3.6 13,3.832 Z M 7.855,7.753 h 0.5 A 0.96,0.96 0 0 0 9.316,6.8 V 6.452 l 1.12,0.56 c 0.027,-0.066 0.054,-0.131 0.083,-0.2 l -1.2,-0.6 V 5.893 h 1.532 l 0.068,-0.2 h -1.6 v -0.9 A 0.96,0.96 0 0 0 8.362,3.836 H 11.2 C 11.22,3.602 11.235,3.383 11.246,3.191 A 4.529,4.529 0 0 1 11.376,2.2 H 7.594 A 0.512,0.512 0 0 0 7.136,2.753 V 3.3 A 0.5,0.5 0 0 0 7.58,3.836 H 7.855 A 0.96,0.96 0 0 0 6.898,4.793 V 6.8 a 0.96,0.96 0 0 0 0.957,0.953 z"/>

</svg>
